core/assets/icons/character.robot.filled.svg

<svg width="25" height="24" viewBox="0 0 25 24" xmlns="http://www.w3.org/2000/svg"><g id="character=robot, state=filled" clip-path="url(#clip0_2922_6764)"><g id="Layer"><g id="Group"><path id="Vector" d="M18.0015 6.6995H13.0013V4.42194C13.5966 4.07549 14.0014 3.43772 14.0014 2.69935C14.0014 1.59482 13.1058 0.69928 12.0013 0.69928C10.8968 0.69928 10.0012 1.59482 10.0012 2.69935C10.0012 3.43772 10.406 4.0755 11.0013 4.42194V6.6995H6.00108C4.34428 6.6995 3.00098 8.0428 3.00098 9.6996V18.6999C3.00098 20.3567 4.34428 21.7 6.00108 21.7H18.0015C19.6583 21.7 21.0016 20.3567 21.0016 18.6999V9.6996C21.0016 8.0428 19.6583 6.6995 18.0015 6.6995ZM9.00119 12.6997H7.00112V10.6996H9.00119V12.6997ZM14.0014 17.6999H10.0012V15.6998H14.0014V17.6999ZM17.0015 12.6997H15.0014V10.6996H17.0015V12.6997Z"/><path id="Vector_2" d="M2.00105 11.7012H0.000976562V16.7014H2.00105V11.7012Z"/><path id="Vector_3" d="M24.0015 11.7012H22.0015V16.7014H24.0015V11.7012Z"/></g></g></g><defs><clipPath id="clip0_2922_6764"><rect width="24.0004" height="24" transform="translate(0.0012207)"/></clipPath></defs></svg>

<svg xmlns="http://www.w3.org/2000/svg" width="25" height="24" fill="none"><g fill="#191C22" clip-path="url(#a)"><path d="M18.002 6.7h-5V4.421c.595-.347 1-.984 1-1.723a2 2 0 0 0-4 0c0 .739.404 1.377 1 1.723v2.277h-5A3 3 0 0 0 3 9.7v9a3 3 0 0 0 3 3.001h12a3 3 0 0 0 3-3v-9a3 3 0 0 0-3-3Zm-9 6h-2v-2h2v2Zm5 5h-4v-2h4v2Zm3-5h-2v-2h2v2ZM2.001 11.701h-2v5h2v-5ZM24.002 11.701h-2v5h2v-5Z"/></g><defs><clipPath id="a"><path fill="#fff" d="M.001 0h24v24h-24z"/></clipPath></defs></svg>
